X: 4
T: The Blackhaired Lass
R: reel
M: 4/4
L: 1/8
K: Ador
ed|cBAB cde^c|d2 gd BGGB|cBAB cde^c|dfe^c Aced|
|cBAB cde^c|d2 gd BGGB|cBAB cde^c|dfe^c A2 AB|
|^cdef g2 ge|f2 fd gfed|^cdef gfeg|fde^c A2 AB|
|^cdef g2 ge|(3fga fd egfb|afge fde=c|dfec Aced|


Tune 237	Setting 24997

